svg/u1f4fa.svg

<svg viewBox="0 0 128 128" xmlns="http://www.w3.org/2000/svg">
  <defs>
    <linearGradient id="SVGID_1_" gradientUnits="userSpaceOnUse" x1="29.3551" x2="28.3104" y1="35.1457" y2="73.0555">
      <stop offset="0" stop-color="#FFFFFF"/>
      <stop offset="1" stop-color="#FFFFFF" stop-opacity="0"/>
    </linearGradient>
  </defs>
  <path d="M60.64,41.1 L38.95,13.88 C38.65,13.5 38.7,12.95 39.06,12.63 L39.06,12.63 C39.44,12.3 40.01,12.33 40.34,12.71 L63.41,38.7 C63.74,39.08 63.71,39.65 63.33,39.98 L61.95,41.2 C61.56,41.55 60.96,41.5 60.64,41.1 Z" fill="#455A64"/>
  <path d="M66.21,40.95 L64.97,39.85 C64.56,39.48 64.52,38.85 64.89,38.44 L87.83,12.58 C88.2,12.17 88.83,12.13 89.24,12.5 L89.24,12.5 C89.64,12.85 89.69,13.46 89.36,13.88 L67.66,40.84 C67.29,41.27 66.63,41.33 66.21,40.95 Z" fill="#455A64"/>
  <path d="M47.74,42.46 C47.74,38.97 55.48,36.13 65.03,36.13 C74.58,36.13 82.32,38.96 82.32,42.46 L47.74,42.46 Z" fill="#455A64"/>
  <path d="M119.57,124 L8.43,124 C5.98,124 4,121.94 4,119.41 L4,45.1 C4,42.56 5.98,40.51 8.43,40.51 L119.58,40.51 C122.02,40.51 124.01,42.57 124.01,45.1 L124.01,119.41 C124,121.94 122.02,124 119.57,124 Z" fill="#82AEC0"/>
  <path d="M116.35,119.64 L11.97,119.64 C10.01,119.64 8.42,118.05 8.42,116.09 L8.42,48.04 C8.42,46.08 10.01,44.49 11.97,44.49 L116.35,44.49 C118.31,44.49 119.9,46.08 119.9,48.04 L119.9,116.09 C119.9,118.05 118.31,119.64 116.35,119.64 Z" fill="#212121"/>
  <path d="M15.39,108.96 L10.59,116.51 C9.75,117.83 10.65,119.62 12.21,119.63 C12.23,119.63 12.25,119.63 12.27,119.63 C14.4,119.63 92.51,119.63 94.99,119.63 L95.06,119.63 C96.83,119.62 97.98,117.76 97.21,116.17 L94.21,109.99 L15.39,108.96 Z" fill="#B9E4EA"/>
  <path d="M95.45,105.47 C94.68,108.94 92.11,111.62 88.81,112.35 C83.39,113.56 73.29,115.07 56.65,115.07 C39.18,115.07 27.46,113.41 21.15,112.18 C17.66,111.5 14.92,108.64 14.24,104.95 C12.67,96.47 10.7,79.52 14.32,58.35 C14.99,54.43 17.98,51.42 21.71,50.91 C28.44,49.98 40.46,48.74 56.65,48.74 C72.01,48.74 82.3,49.86 88.13,50.76 C91.72,51.32 94.59,54.23 95.32,58 C99.65,80.3 97.26,97.29 95.45,105.47 Z" fill="#2F7889"/>
  <path d="M97.403,105.903 Q95.864,112.838 89.242,114.303 Q76.847,117.07 56.65,117.07 Q35.783,117.07 20.767,114.143 Q13.645,112.755 12.273,105.312 Q8.108,82.814 12.349,58.013 Q12.958,54.449 15.449,51.942 Q17.971,49.403 21.439,48.928 Q37.276,46.74 56.65,46.74 Q75.198,46.74 88.435,48.783 Q95.795,49.931 97.284,57.62 Q102.333,83.623 97.403,105.902 Z M93.497,105.038 L93.497,105.037 Q98.247,83.569 93.356,58.38 Q92.402,53.451 87.825,52.737 Q74.891,50.74 56.65,50.74 Q37.551,50.74 21.981,52.892 Q17.17,53.549 16.291,58.687 Q12.171,82.786 16.207,104.588 Q17.085,109.35 21.533,110.217 Q36.169,113.07 56.65,113.07 Q76.406,113.07 88.378,110.397 Q92.51,109.483 93.497,105.038 Z" fill="#212121"/>
  <path d="M114.89,116.47 L103.5,116.47 C102.34,116.47 101.41,115.53 101.41,114.38 L101.41,90.63 C101.41,89.47 102.35,88.54 103.5,88.54 L114.89,88.54 C116.05,88.54 116.98,89.48 116.98,90.63 L116.98,114.38 C116.98,115.53 116.05,116.47 114.89,116.47 Z" fill="#455A64"/>
  <path d="M116.09,58.31 A6.89 6.89 0 1 1 102.31,58.31 A6.89 6.89 0 1 1 116.09,58.31 Z" fill="#455A64"/>
  <path d="M109.2,51.98 L109.2,51.98 C108.67,51.98 108.21,52.34 108.09,52.85 L107.19,56.55 C106.91,57.7 106.91,58.9 107.19,60.06 L108.09,63.76 C108.22,64.27 108.67,64.63 109.2,64.63 L109.2,64.63 C109.73,64.63 110.19,64.27 110.31,63.76 L111.21,60.06 C111.49,58.91 111.49,57.71 111.21,56.55 L110.31,52.85 C110.18,52.34 109.72,51.98 109.2,51.98 Z" fill="#82AEC0"/>
  <path d="M116.09,76.12 A6.89 6.89 0 1 1 102.31,76.12 A6.89 6.89 0 1 1 116.09,76.12 Z" fill="#455A64"/>
  <path d="M104.33,72.08 L104.33,72.08 C103.99,72.49 103.98,73.07 104.29,73.49 L106.56,76.54 C107.27,77.49 108.19,78.26 109.26,78.78 L112.68,80.44 C113.15,80.67 113.72,80.55 114.06,80.14 L114.06,80.14 C114.4,79.73 114.41,79.15 114.1,78.73 L111.83,75.68 C111.12,74.73 110.2,73.96 109.13,73.44 L105.71,71.78 C105.24,71.55 104.67,71.68 104.33,72.08 Z" fill="#82AEC0"/>
  <path d="M31.08,55.78 C32.76,55.58 35.94,55.72 37.06,59.13 C38.18,62.54 35.72,63.46 34.4,64.47 C30.61,67.36 28.73,68.46 26.45,71.61 C24.63,74.13 21.45,73.34 20.5,71.68 C19.74,70.34 19.18,66.04 20.79,63.2 C24.26,57.12 29.4,55.98 31.08,55.78 Z" fill="url(#SVGID_1_)"/>
</svg>

<svg viewBox="0 0 128 128" xmlns="http://www.w3.org/2000/svg">
  <g>
    <path d="M60.64,41.1L38.95,13.88c-0.3-0.38-0.25-0.93,0.11-1.25v0c0.38-0.33,0.95-0.3,1.28,0.08L63.41,38.7 c0.33,0.38,0.3,0.95-0.08,1.28l-1.38,1.22C61.56,41.55,60.96,41.5,60.64,41.1z" fill="#455A64"/>
    <path d="M66.21,40.95l-1.24-1.1c-0.41-0.37-0.45-1-0.08-1.41l22.94-25.86c0.37-0.41,1-0.45,1.41-0.08v0 c0.4,0.35,0.45,0.96,0.12,1.38l-21.7,26.96C67.29,41.27,66.63,41.33,66.21,40.95z" fill="#455A64"/>
    <path d="M47.74,42.46c0-3.49,7.74-6.33,17.29-6.33s17.29,2.83,17.29,6.33H47.74z" fill="#455A64"/>
    <path d="M119.57,124H8.43C5.98,124,4,121.94,4,119.41V45.1c0-2.54,1.98-4.59,4.43-4.59h111.15 c2.44,0,4.43,2.06,4.43,4.59v74.31C124,121.94,122.02,124,119.57,124z" fill="#82AEC0"/>
    <path d="M116.35,119.64H11.97c-1.96,0-3.55-1.59-3.55-3.55V48.04c0-1.96,1.59-3.55,3.55-3.55h104.38 c1.96,0,3.55,1.59,3.55,3.55v68.05C119.9,118.05,118.31,119.64,116.35,119.64z" fill="#212121"/>
    <path d="M15.39,108.96l-4.8,7.55c-0.84,1.32,0.06,3.11,1.62,3.12c0.02,0,0.04,0,0.06,0 c2.13,0,80.24,0,82.72,0l0.07,0c1.77-0.01,2.92-1.87,2.15-3.46l-3-6.18L15.39,108.96z" fill="#B9E4EA"/>
    <path d="M95.45,105.47c-0.77,3.47-3.34,6.15-6.64,6.88 c-5.42,1.21-15.52,2.72-32.16,2.72c-17.47,0-29.19-1.66-35.5-2.89c-3.49-0.68-6.23-3.54-6.91-7.23c-1.57-8.48-3.54-25.43,0.08-46.6 c0.67-3.92,3.66-6.93,7.39-7.44c6.73-0.93,18.75-2.17,34.94-2.17c15.36,0,25.65,1.12,31.48,2.02c3.59,0.56,6.46,3.47,7.19,7.24 C99.65,80.3,97.26,97.29,95.45,105.47z" fill="#2F7889" stroke="#212121" stroke-width="4" stroke-miterlimit="10"/>
    <path d="M114.89,116.47H103.5c-1.16,0-2.09-0.94-2.09-2.09V90.63c0-1.16,0.94-2.09,2.09-2.09h11.39 c1.16,0,2.09,0.94,2.09,2.09v23.75C116.98,115.53,116.05,116.47,114.89,116.47z" fill="#455A64"/>
    <circle cx="109.2" cy="58.31" r="6.89" fill="#455A64"/>
    <path d="M109.2,51.98L109.2,51.98c-0.53,0-0.99,0.36-1.11,0.87l-0.9,3.7c-0.28,1.15-0.28,2.35,0,3.51 l0.9,3.7c0.13,0.51,0.58,0.87,1.11,0.87h0c0.53,0,0.99-0.36,1.11-0.87l0.9-3.7c0.28-1.15,0.28-2.35,0-3.51l-0.9-3.7 C110.18,52.34,109.72,51.98,109.2,51.98z" fill="#82AEC0"/>
    <circle cx="109.2" cy="76.12" r="6.89" fill="#455A64"/>
    <path d="M104.33,72.08L104.33,72.08c-0.34,0.41-0.35,0.99-0.04,1.41l2.27,3.05c0.71,0.95,1.63,1.72,2.7,2.24 l3.42,1.66c0.47,0.23,1.04,0.11,1.38-0.3l0,0c0.34-0.41,0.35-0.99,0.04-1.41l-2.27-3.05c-0.71-0.95-1.63-1.72-2.7-2.24l-3.42-1.66 C105.24,71.55,104.67,71.68,104.33,72.08z" fill="#82AEC0"/>
    <linearGradient id="SVGID_1_" gradientUnits="userSpaceOnUse" x1="29.3551" x2="28.3104" y1="35.1457" y2="73.0555">
      <stop offset="0" stop-color="#FFFFFF"/>
      <stop offset="1" stop-color="#FFFFFF" stop-opacity="0"/>
    </linearGradient>
    <path d="M31.08,55.78c1.68-0.2,4.86-0.06,5.98,3.35s-1.34,4.33-2.66,5.34 c-3.79,2.89-5.67,3.99-7.95,7.14c-1.82,2.52-5,1.73-5.95,0.07c-0.76-1.34-1.32-5.64,0.29-8.48C24.26,57.12,29.4,55.98,31.08,55.78z " fill="url(#SVGID_1_)"/>
  </g>
</svg>
